assets/Eject button/Flat/eject_button_flat.svg

<svg width="32" height="32" viewBox="0 0 32 32" fill="none" xmlns="http://www.w3.org/2000/svg">
<path d="M2 6C2 3.79086 3.79086 2 6 2H26C28.2091 2 30 3.79086 30 6V26C30 28.2091 28.2091 30 26 30H6C3.79086 30 2 28.2091 2 26V6Z" fill="#00A6ED"/>
<path d="M16.6867 9.6488C16.3013 9.28467 15.6987 9.28467 15.3133 9.6488L8.3016 16.2731C7.644 16.8944 8.08368 18 8.98834 18H23.0116C23.9163 18 24.356 16.8944 23.6984 16.2731L16.6867 9.6488Z" fill="white"/>
<path d="M8 22.5C8 22.7761 8.22385 23 8.5 23H23.5C23.7761 23 24 22.7761 24 22.5V20.5C24 20.2239 23.7761 20 23.5 20H8.5C8.22385 20 8 20.2239 8 20.5V22.5Z" fill="white"/>
</svg>

<svg xmlns="http://www.w3.org/2000/svg" width="32" height="32" fill="none"><path fill="#00A6ED" d="M2 6a4 4 0 0 1 4-4h20a4 4 0 0 1 4 4v20a4 4 0 0 1-4 4H6a4 4 0 0 1-4-4V6Z"/><path fill="#fff" d="M16.687 9.649a1 1 0 0 0-1.374 0l-7.011 6.624c-.658.621-.218 1.727.686 1.727h14.024c.904 0 1.344-1.106.686-1.727L16.687 9.65ZM8 22.5a.5.5 0 0 0 .5.5h15a.5.5 0 0 0 .5-.5v-2a.5.5 0 0 0-.5-.5h-15a.5.5 0 0 0-.5.5v2Z"/></svg>
